svgs/thin/key.svg

<svg xmlns="http://www.w3.org/2000/svg" viewBox="0 0 512 512"><!--! Font Awesome Pro 6.4.2 by @fontawesome - https://fontawesome.com License - https://fontawesome.com/license (Commercial License) Copyright 2023 Fonticons, Inc. --><path d="M287.2 328.4c15.4 4.9 31.8 7.6 48.8 7.6c88.4 0 160-71.6 160-160s-71.6-160-160-160s-160 71.6-160 160c0 17.1 2.7 33.5 7.6 48.8c1.8 5.7 .3 12-3.9 16.2L18.3 402.3c-1.5 1.5-2.3 3.5-2.3 5.7v80c0 4.4 3.6 8 8 8h80c4.4 0 8-3.6 8-8V448c0-8.8 7.2-16 16-16h40c4.4 0 8-3.6 8-8V384c0-8.8 7.2-16 16-16h40c2.1 0 4.2-.8 5.7-2.3L271 332.3c4.2-4.2 10.5-5.8 16.2-3.9zM336 352c-18.7 0-36.8-2.9-53.7-8.3L249 377c-4.5 4.5-10.6 7-17 7H208 192v16 24c0 13.3-10.7 24-24 24H144 128v16 24c0 13.3-10.7 24-24 24H24c-13.3 0-24-10.7-24-24V408c0-6.4 2.5-12.5 7-17L168.3 229.7c-5.4-16.9-8.3-35-8.3-53.7C160 78.8 238.8 0 336 0s176 78.8 176 176s-78.8 176-176 176zm32-248a40 40 0 1 1 0 80 40 40 0 1 1 0-80zm24 40a24 24 0 1 0 -48 0 24 24 0 1 0 48 0z"/></svg>

<svg xmlns="http://www.w3.org/2000/svg" viewBox="0 0 512 512"><!--! Font Awesome Pro 6.1.1 by @fontawesome - https://fontawesome.com License - https://fontawesome.com/license (Commercial License) Copyright 2022 Fonticons, Inc. --><path d="M328 144C328 121.9 345.9 104 368 104C390.1 104 408 121.9 408 144C408 166.1 390.1 184 368 184C345.9 184 328 166.1 328 144zM368 120C354.7 120 344 130.7 344 144C344 157.3 354.7 168 368 168C381.3 168 392 157.3 392 144C392 130.7 381.3 120 368 120zM336 352C317.3 352 299.2 349.1 282.3 343.7L248.1 376.1C244.5 381.5 238.4 384 232 384H192V424C192 437.3 181.3 448 168 448H128V488C128 501.3 117.3 512 104 512H24C10.75 512 0 501.3 0 488V408C0 401.6 2.529 395.5 7.029 391L168.3 229.7C162.9 212.8 160 194.7 160 176C160 78.8 238.8 0 336 0C433.2 0 512 78.8 512 176C512 273.2 433.2 352 336 352zM336 336C424.4 336 496 264.4 496 176C496 87.63 424.4 16 336 16C247.6 16 176 87.63 176 176C176 193.1 178.7 209.5 183.6 224.8C185.4 230.5 183.9 236.8 179.7 241L18.34 402.3C16.84 403.8 16 405.9 16 408V488C16 492.4 19.58 496 24 496H104C108.4 496 112 492.4 112 488V448C112 439.2 119.2 432 128 432H168C172.4 432 176 428.4 176 424V384C176 375.2 183.2 368 192 368H232C234.1 368 236.2 367.2 237.7 365.7L270.1 332.3C275.2 328.1 281.5 326.6 287.2 328.4C302.5 333.3 318.9 336 336 336L336 336z"/></svg>
